public/weather-icons/PartlyCloudy.svg

<svg width="40" height="40" viewBox="0 0 40 40" fill="none" xmlns="http://www.w3.org/2000/svg">
<path d="M18 7.99997C18.5523 7.99997 19 8.44768 19 8.99997V9.99997C19 10.5523 18.5523 11 18 11C17.4477 11 17 10.5523 17 9.99997V8.99997C17 8.44768 17.4477 7.99997 18 7.99997Z" fill="#F9BE1A"/>
<path d="M18 27C18.5523 27 19 27.4477 19 28V29C19 29.5523 18.5523 30 18 30C17.4477 30 17 29.5523 17 29V28C17 27.4477 17.4477 27 18 27Z" fill="#F9BE1A"/>
<path d="M28 20C28.5523 20 29 19.5523 29 19C29 18.4477 28.5523 18 28 18H27C26.4477 18 26 18.4477 26 19C26 19.5523 26.4477 20 27 20H28Z" fill="#F9BE1A"/>
<path d="M10 19C10 19.5523 9.55228 20 9 20H8C7.44772 20 7 19.5523 7 19C7 18.4477 7.44772 18 8 18H9C9.55228 18 10 18.4477 10 19Z" fill="#F9BE1A"/>
<path d="M23.8658 10.8398C24.142 10.3615 23.9781 9.7499 23.4998 9.47375C23.0215 9.19761 22.4099 9.36149 22.1338 9.83978L21.6338 10.7058C21.3576 11.1841 21.5215 11.7957 21.9998 12.0718C22.4781 12.348 23.0897 12.1841 23.3658 11.7058L23.8658 10.8398Z" fill="#F9BE1A"/>
<path d="M13.9998 25.9282C14.4781 26.2043 14.642 26.8159 14.3658 27.2942L13.8658 28.1602C13.5897 28.6385 12.9781 28.8024 12.4998 28.5263C12.0215 28.2501 11.8576 27.6385 12.1338 27.1602L12.6338 26.2942C12.9099 25.8159 13.5215 25.6521 13.9998 25.9282Z" fill="#F9BE1A"/>
<path d="M26.1603 24.866C26.6386 25.1422 27.2502 24.9783 27.5264 24.5C27.8025 24.0217 27.6386 23.4101 27.1603 23.134L26.2943 22.634C25.816 22.3578 25.2044 22.5217 24.9283 23C24.6521 23.4783 24.816 24.0899 25.2943 24.366L26.1603 24.866Z" fill="#F9BE1A"/>
<path d="M11.0718 15C10.7956 15.4783 10.184 15.6422 9.70575 15.366L8.83973 14.866C8.36143 14.5899 8.19756 13.9783 8.4737 13.5C8.74984 13.0217 9.36143 12.8578 9.83973 13.134L10.7058 13.634C11.184 13.9101 11.3479 14.5217 11.0718 15Z" fill="#F9BE1A"/>
<path d="M27.1603 14.866C27.6386 14.5899 27.8025 13.9783 27.5264 13.5C27.2502 13.0217 26.6386 12.8578 26.1603 13.134L25.2943 13.634C24.816 13.9101 24.6521 14.5217 24.9283 15C25.2044 15.4783 25.816 15.6422 26.2943 15.366L27.1603 14.866Z" fill="#F9BE1A"/>
<path d="M11.0718 23C11.3479 23.4783 11.184 24.0898 10.7058 24.366L9.83973 24.866C9.36143 25.1421 8.74984 24.9783 8.4737 24.5C8.19756 24.0217 8.36143 23.4101 8.83973 23.1339L9.70575 22.6339C10.184 22.3578 10.7956 22.5217 11.0718 23Z" fill="#F9BE1A"/>
<path d="M22.1342 28.1602C22.4103 28.6385 23.0219 28.8024 23.5002 28.5262C23.9785 28.2501 24.1424 27.6385 23.8662 27.1602L23.3662 26.2942C23.0901 25.8159 22.4785 25.652 22.0002 25.9282C21.5219 26.2043 21.358 26.8159 21.6342 27.2942L22.1342 28.1602Z" fill="#F9BE1A"/>
<path d="M14.0002 12.0718C13.5219 12.3479 12.9103 12.184 12.6342 11.7058L12.1342 10.8397C11.858 10.3614 12.0219 9.74984 12.5002 9.4737C12.9785 9.19756 13.5901 9.36143 13.8662 9.83973L14.3662 10.7058C14.6424 11.184 14.4785 11.7956 14.0002 12.0718Z" fill="#F9BE1A"/>
<path d="M18 26.0001C21.866 26.0001 25.0001 22.866 25.0001 19C25.0001 15.134 21.866 12 18 12C14.134 12 11 15.134 11 19C11 22.866 14.134 26.0001 18 26.0001Z" fill="#F9BE1A"/>
<path fill-rule="evenodd" clip-rule="evenodd" d="M30.7943 25.5289C30.905 25.1491 30.9643 24.748 30.9643 24.3333C30.9643 21.9401 28.9895 20 26.5536 20C24.5465 20 22.8525 21.3171 22.3182 23.1196C21.826 22.4419 21.0191 22 20.1071 22C18.6081 22 17.3929 23.1939 17.3929 24.6667C17.3929 24.8969 17.4225 25.1203 17.4784 25.3333H17.3333C15.4924 25.3333 14 26.8257 14 28.6667C14 30.5076 15.4924 32 17.3333 32H29.6667C31.5076 32 33 30.5076 33 28.6667C33 27.2215 32.0803 25.9911 30.7943 25.5289Z" fill="#DDDDDD"/>
</svg>

<?xml version="1.0" encoding="utf-8"?>
<!-- Generator: Adobe Illustrator 26.1.0, SVG Export Plug-In . SVG Version: 6.00 Build 0)  -->
<svg version="1.1" id="Шар_1" xmlns="http://www.w3.org/2000/svg" xmlns:xlink="http://www.w3.org/1999/xlink" x="0px" y="0px"
	 viewBox="0 0 40 40" style="enable-background:new 0 0 40 40;" xml:space="preserve">
<style type="text/css">
	.st0{fill:#F9BE1A;}
	.st1{fill-rule:evenodd;clip-rule:evenodd;fill:#F0F0F0;}
</style>
<path class="st0" d="M18,8c0.6,0,1,0.4,1,1v1c0,0.6-0.4,1-1,1s-1-0.4-1-1V9C17,8.4,17.4,8,18,8z"/>
<path class="st0" d="M18,27c0.6,0,1,0.4,1,1v1c0,0.6-0.4,1-1,1s-1-0.4-1-1v-1C17,27.4,17.4,27,18,27z"/>
<path class="st0" d="M28,20c0.6,0,1-0.4,1-1s-0.4-1-1-1h-1c-0.6,0-1,0.4-1,1s0.4,1,1,1H28z"/>
<path class="st0" d="M10,19c0,0.6-0.4,1-1,1H8c-0.6,0-1-0.4-1-1s0.4-1,1-1h1C9.6,18,10,18.4,10,19z"/>
<path class="st0" d="M23.9,10.8c0.3-0.5,0.1-1.1-0.4-1.4c-0.5-0.3-1.1-0.1-1.4,0.4l-0.5,0.9c-0.3,0.5-0.1,1.1,0.4,1.4
	c0.5,0.3,1.1,0.1,1.4-0.4L23.9,10.8z"/>
<path class="st0" d="M14,25.9c0.5,0.3,0.6,0.9,0.4,1.4l-0.5,0.9c-0.3,0.5-0.9,0.6-1.4,0.4c-0.5-0.3-0.6-0.9-0.4-1.4l0.5-0.9
	C12.9,25.8,13.5,25.7,14,25.9z"/>
<path class="st0" d="M26.2,24.9c0.5,0.3,1.1,0.1,1.4-0.4c0.3-0.5,0.1-1.1-0.4-1.4l-0.9-0.5c-0.5-0.3-1.1-0.1-1.4,0.4
	c-0.3,0.5-0.1,1.1,0.4,1.4L26.2,24.9z"/>
<path class="st0" d="M11.1,15c-0.3,0.5-0.9,0.6-1.4,0.4l-0.9-0.5c-0.5-0.3-0.6-0.9-0.4-1.4c0.3-0.5,0.9-0.6,1.4-0.4l0.9,0.5
	C11.2,13.9,11.3,14.5,11.1,15z"/>
<path class="st0" d="M27.2,14.9c0.5-0.3,0.6-0.9,0.4-1.4c-0.3-0.5-0.9-0.6-1.4-0.4l-0.9,0.5c-0.5,0.3-0.6,0.9-0.4,1.4
	c0.3,0.5,0.9,0.6,1.4,0.4L27.2,14.9z"/>
<path class="st0" d="M11.1,23c0.3,0.5,0.1,1.1-0.4,1.4l-0.9,0.5c-0.5,0.3-1.1,0.1-1.4-0.4c-0.3-0.5-0.1-1.1,0.4-1.4l0.9-0.5
	C10.2,22.4,10.8,22.5,11.1,23z"/>
<path class="st0" d="M22.1,28.2c0.3,0.5,0.9,0.6,1.4,0.4c0.5-0.3,0.6-0.9,0.4-1.4l-0.5-0.9c-0.3-0.5-0.9-0.6-1.4-0.4
	c-0.5,0.3-0.6,0.9-0.4,1.4L22.1,28.2z"/>
<path class="st0" d="M14,12.1c-0.5,0.3-1.1,0.1-1.4-0.4l-0.5-0.9c-0.3-0.5-0.1-1.1,0.4-1.4c0.5-0.3,1.1-0.1,1.4,0.4l0.5,0.9
	C14.6,11.2,14.5,11.8,14,12.1z"/>
<path class="st0" d="M18,26c3.9,0,7-3.1,7-7s-3.1-7-7-7s-7,3.1-7,7S14.1,26,18,26z"/>
<path class="st1" d="M30.8,25.5c0.1-0.4,0.2-0.8,0.2-1.2c0-2.4-2-4.3-4.4-4.3c-2,0-3.7,1.3-4.2,3.1C21.8,22.4,21,22,20.1,22
	c-1.5,0-2.7,1.2-2.7,2.7c0,0.2,0,0.5,0.1,0.7h-0.1c-1.8,0-3.3,1.5-3.3,3.3c0,1.8,1.5,3.3,3.3,3.3h12.3c1.8,0,3.3-1.5,3.3-3.3
	C33,27.2,32.1,26,30.8,25.5z"/>
</svg>
